X:1
T: Mr. Gordon Glennie
C:Alexander Walker
R:Strathspey
Q: 128
K:G
M:4/4
L:1/16
|:D2|G4 B3G EG3 D4|G4 B3G cA3 A3B|G4 B3G Bd3 e4|Bd3 g3d BG3 G2D2|
G4 B3G EG3 D4|G4 B3G cA3 A3B|G4 B3G Bd3 e4|Bd3 g3d BG3 G2d2|
g2ab a3g e3g d4|c2de d3B cA3 A3a|g2ab a3g e3g d4|c3e d3c BG3 G3d|
b3g a3g e3g d4|c2de d3B cA3 A3c|BG3 d3B cA3 a3g|f3d e3f gG3 G2:|
